DVA
CUT[Ob ich gleich ein Schaefer bin
    hab' ich immer frohen Sinn]
REG[Europa, Mitteleuropa, Deutschland, Unterfranken, Wuerzburg]
KEY[D0288  16  F 3/4]
MEL[    1_.2  3__3__2_.2  1__0__
    1_3_  5__.3_2_2_  1__0__
    5_5_  6_5_4_3_4_4_  4_6_5_4_3_2_  3_2_
    1_1_1_3_  2_2_1__
    1_3_  5__.3_2_2_  1__0__ //] >>
FCT[Hirten - Lied]
CMT[Inzipit = Variante zum Lied]
